Numix-Square/48x48/apps/themonospot.svg

<svg xmlns="http://www.w3.org/2000/svg" xmlns:xlink="http://www.w3.org/1999/xlink" width="48" viewBox="0 0 13.546667 13.546667" height="48">
 <defs>
  <linearGradient id="0">
   <stop stop-color="#dcdcdc"/>
   <stop offset="1" stop-color="#f9f9f9"/>
  </linearGradient>
  <linearGradient gradientTransform="matrix(0.28222223,0,0,0.28222223,0,-283.45334)" xlink:href="#0" id="1" y1="1050.36" x2="0" y2="1006.36" gradientUnits="userSpaceOnUse"/>
 </defs>
 <g transform="matrix(0.28222223,0,0,0.28222223,0,-283.45334)">
  <path transform="translate(0,1004.3622)" d="M 5.1875,1 C 2.8707723,1 1,2.8707723 1,5.1875 l 0,37.625 C 1,45.129228 2.8707723,47 5.1875,47 l 37.625,0 C 45.129228,47 47,45.129228 47,42.8125 L 47,5.1875 C 47,2.8707723 45.129228,1 42.8125,1 L 5.1875,1 z m 0.1875,0.25 37.25,0 c 2.291546,0 4.125,1.8334541 4.125,4.125 l 0,37.25 c 0,2.291546 -1.833454,4.125 -4.125,4.125 l -37.25,0 C 3.0834541,46.75 1.25,44.916546 1.25,42.625 l 0,-37.25 C 1.25,3.0834541 3.0834541,1.25 5.375,1.25 z" opacity="0.05"/>
  <path transform="translate(0,1004.3622)" d="M 5.375,1.25 C 3.0834541,1.25 1.25,3.0834541 1.25,5.375 l 0,37.25 c 0,2.291546 1.8334541,4.125 4.125,4.125 l 37.25,0 c 2.291546,0 4.125,-1.833454 4.125,-4.125 l 0,-37.25 C 46.75,3.0834541 44.916546,1.25 42.625,1.25 l -37.25,0 z m 0.21875,0.25 36.8125,0 C 44.672614,1.5 46.5,3.3273859 46.5,5.59375 l 0,36.8125 C 46.5,44.672614 44.672614,46.5 42.40625,46.5 l -36.8125,0 C 3.3273859,46.5 1.5,44.672614 1.5,42.40625 l 0,-36.8125 C 1.5,3.3273859 3.3273859,1.5 5.59375,1.5 z" opacity="0.1"/>
  <path transform="translate(0,1004.3622)" d="M 5.59375,1.5 C 3.3273859,1.5 1.5,3.3273859 1.5,5.59375 l 0,36.8125 C 1.5,44.672614 3.3273859,46.5 5.59375,46.5 l 36.8125,0 C 44.672614,46.5 46.5,44.672614 46.5,42.40625 l 0,-36.8125 C 46.5,3.3273859 44.672614,1.5 42.40625,1.5 l -36.8125,0 z m 0.09375,0.125 36.625,0 c 2.253773,0 4.0625,1.8087269 4.0625,4.0625 l 0,36.625 c 0,2.253773 -1.808727,4.0625 -4.0625,4.0625 l -36.625,0 c -2.2537731,0 -4.0625,-1.808727 -4.0625,-4.0625 l 0,-36.625 C 1.625,3.4337269 3.4337269,1.625 5.6875,1.625 z" opacity="0.2"/>
  <path transform="translate(0,1004.3622)" d="M 5.6875,1.625 C 3.4337269,1.625 1.625,3.4337269 1.625,5.6875 l 0,36.625 c 0,2.253773 1.8087269,4.0625 4.0625,4.0625 l 36.625,0 c 2.253773,0 4.0625,-1.808727 4.0625,-4.0625 l 0,-36.625 c 0,-2.2537731 -1.808727,-4.0625 -4.0625,-4.0625 l -36.625,0 z m 0.09375,0.125 36.4375,0 c 2.241182,0 4.03125,1.7900679 4.03125,4.03125 l 0,36.4375 c 0,2.241182 -1.790068,4.03125 -4.03125,4.03125 l -36.4375,0 C 3.5400679,46.25 1.75,44.459932 1.75,42.21875 l 0,-36.4375 C 1.75,3.5400679 3.5400679,1.75 5.78125,1.75 z" opacity="0.3"/>
  <path transform="translate(0,1004.3622)" d="M 5.78125,1.75 C 3.5400679,1.75 1.75,3.5400679 1.75,5.78125 l 0,36.4375 c 0,2.241182 1.7900679,4.03125 4.03125,4.03125 l 36.4375,0 c 2.241182,0 4.03125,-1.790068 4.03125,-4.03125 l 0,-36.4375 C 46.25,3.5400679 44.459932,1.75 42.21875,1.75 l -36.4375,0 z m 0.125,0.125 36.1875,0 c 2.228591,0 4.03125,1.802659 4.03125,4.03125 l 0,36.1875 c 0,2.228591 -1.802659,4.03125 -4.03125,4.03125 l -36.1875,0 C 3.677659,46.125 1.875,44.322341 1.875,42.09375 l 0,-36.1875 C 1.875,3.677659 3.677659,1.875 5.90625,1.875 z" opacity="0.4"/>
  <rect width="44.25" height="44.25" x="1.875" y="1006.24" rx="4.02" opacity="0.5"/>
 </g>
 <rect width="12.418" height="12.418" x="0.564" y="0.564" rx="1.129" fill="url(#1)"/>
 <path d="M 14.96875 12 C 14.96875 12 13.5 13.5 13.5 15 L 13.5 33 C 13.5 34.5144 12 36 12 36 L 13.5 36 C 13.5 36 14.149061 35.359515 14.59375 34.5 L 16.09375 34.5 C 15.649061 35.359515 15 36 15 36 L 16.5 36 C 16.5 36 18 34.4679 18 33 L 18 30 L 19 30 L 19 28.5 L 18 28.5 L 18 21 L 19 21 L 19 20.875 C 18.779046 20.663529 18.608051 20.415344 18.5 20.15625 C 18.414671 19.951644 18.37453 19.721705 18.34375 19.5 L 18 19.5 L 18 15 C 18 13.5 19.46875 12 19.46875 12 L 14.96875 12 z M 31.5 12 C 31.5 12 30.03125 13.5 30.03125 15 L 30.03125 19.5 L 29.78125 19.5 C 29.744965 20.042018 29.568198 20.535032 29.3125 21 L 30.03125 21 L 30.03125 28.5 L 29 28.5 L 29 30 L 30.03125 30 L 30.03125 33 C 30.03125 34.5 28.53125 36 28.53125 36 L 30.03125 36 C 30.03125 36 30.680311 35.359515 31.125 34.5 L 32.625 34.5 C 32.180311 35.359515 31.53125 36 31.53125 36 L 33.03125 36 C 33.03125 36 34.53125 34.52343 34.53125 33 L 34.53125 15 C 34.53125 13.5 36 12 36 12 L 31.5 12 z M 15.4375 13.5 L 16.9375 13.5 C 16.707686 13.95867 16.5 14.478165 16.5 15 L 15 15 C 15 14.478165 15.207686 13.95867 15.4375 13.5 z M 31.96875 13.5 L 33.46875 13.5 C 33.238936 13.95867 33.03125 14.478165 33.03125 15 L 31.53125 15 C 31.53125 14.478165 31.738936 13.95867 31.96875 13.5 z M 15 16.5 L 16.5 16.5 L 16.5 18 L 15 18 L 15 16.5 z M 31.53125 16.5 L 33.03125 16.5 L 33.03125 18 L 31.53125 18 L 31.53125 16.5 z M 15 19.5 L 16.5 19.5 L 16.5 21 L 15 21 L 15 19.5 z M 31.53125 19.5 L 33.03125 19.5 L 33.03125 21 L 31.53125 21 L 31.53125 19.5 z M 15 22.5 L 16.5 22.5 L 16.5 24 L 15 24 L 15 22.5 z M 31.53125 22.5 L 33.03125 22.5 L 33.03125 24 L 31.53125 24 L 31.53125 22.5 z M 15 25.5 L 16.5 25.5 L 16.5 27 L 15 27 L 15 25.5 z M 31.53125 25.5 L 33.03125 25.5 L 33.03125 27 L 31.53125 27 L 31.53125 25.5 z M 15 28.5 L 16.5 28.5 L 16.5 30 L 15 30 L 15 28.5 z M 31.53125 28.5 L 33.03125 28.5 L 33.03125 30 L 31.53125 30 L 31.53125 28.5 z M 15 31.5 L 16.5 31.5 L 16.5 33 L 15 33 L 15 31.5 z M 31.53125 31.5 L 33.03125 31.5 L 33.03125 33 L 31.53125 33 L 31.53125 31.5 z " transform="scale(.28222)" fill="#2d2d2d" color="#000"/>
 <path d="M 6.933926,7.6701147 C 6.922277,7.2604559 7.015483,6.8627811 7.4085716,6.5810804 7.8237731,6.2624731 8.2236296,5.8638975 8.1813671,5.394036 8.1721387,4.9409063 7.6359375,4.5858551 7.0582105,4.5347828 6.4083575,4.4461369 5.6220498,4.6653413 5.4042794,5.165029 c -0.1104421,0.2430508 -0.00803,0.6790687 0.3626205,0.6790687 0.2168005,0 0.3163725,-0.1378823 0.332724,-0.2640192 0.01238,-0.095434 -0.027415,-0.1806471 -0.050919,-0.2594905 -0.02678,-0.089815 0.087533,-0.2639024 0.2120376,-0.3348425 0.104033,-0.059268 0.2128839,-0.079131 0.228917,-0.082939 0.37361,-0.088412 0.746055,0.1068728 0.9014546,0.3445476 C 7.5465036,5.485024 7.3754691,5.8455681 7.1295475,6.1961394 6.8836415,6.5467302 6.619729,6.9449163 6.620788,7.367869 c 0,0.1610226 -0.01457,0.2157178 -0.0042,0.280868 0.00827,0.052056 0.183303,0.045774 0.317359,0.021329 z M 6.763418,8.2214879 c -0.3572415,-0.01909 -0.604503,0.379663 -0.3898915,0.633718 0.1916645,0.280498 0.729017,0.211257 0.8211266,-0.10638 0.095756,-0.247001 -0.1346805,-0.531438 -0.4312351,-0.527338 l 0,0 z" fill="#e4a226"/>
</svg>

<svg viewBox="0 0 48 48"><defs><linearGradient id="linearGradient3764" x1="1" x2="47" gradientUnits="userSpaceOnUse" gradientTransform="translate(-47.997785,0.00221467)"><stop stop-color="#e4e4e4" stop-opacity="1"/><stop offset="1" stop-color="#eee" stop-opacity="1"/></linearGradient><clipPath id="clipPath-049332804"><g transform="translate(0,-1004.3622)"><rect rx="4" y="1005.36" x="1" height="46" width="46" fill="#1890d0"/></g></clipPath><clipPath id="clipPath-061350746"><g transform="translate(0,-1004.3622)"><rect rx="4" y="1005.36" x="1" height="46" width="46" fill="#1890d0"/></g></clipPath></defs><g><g transform="translate(0,-1004.3622)"><path d="m 5 1006.36 c -2.216 0 -4 1.784 -4 4 l 0 37.25 c 0 2.216 1.784 4 4 4 l 38 0 c 2.216 0 4 -1.784 4 -4 l 0 -37.25 c 0 -2.216 -1.784 -4 -4 -4 l -38 0 z m -4 41.5 0 0.5 c 0 2.216 1.784 4 4 4 l 38 0 c 2.216 0 4 -1.784 4 -4 l 0 -0.5 c 0 2.216 -1.784 4 -4 4 l -38 0 c -2.216 0 -4 -1.784 -4 -4 z" opacity="0.02"/><path d="m 1 1047.61 0 0.25 c 0 2.216 1.784 4 4 4 l 38 0 c 2.216 0 4 -1.784 4 -4 l 0 -0.25 c 0 2.216 -1.784 4 -4 4 l -38 0 c -2.216 0 -4 -1.784 -4 -4 z" opacity="0.05"/><rect width="46" height="46" x="1" y="1005.61" rx="4" opacity="0.1"/></g></g><g><rect width="46" height="46" x="-46.998" y="1" rx="4" transform="matrix(0,-1,1,0,0,0)" fill="url(#linearGradient3764)" fill-opacity="1"/></g><g/><g><g clip-path="url(#clipPath-049332804)"><g opacity="0.1"><!-- color: #eeeeee --><g><path d="m 14.969 12 c 0 0 -1.469 1.5 -1.469 3 l 0 18 c 0 1.516 -1.5 3 -1.5 3 l 1.5 0 c 0 0 0.648 -0.641 1.094 -1.5 l 1.5 0 c -0.445 0.859 -1.094 1.5 -1.094 1.5 l 1.5 0 c 0 0 1.5 -1.531 1.5 -3 l 0 -3 l 1 0 l 0 -1.5 l -1 0 l 0 -7.5 l 1 0 l 0 -0.125 c -0.223 -0.211 -0.391 -0.461 -0.5 -0.719 c -0.086 -0.207 -0.125 -0.434 -0.156 -0.656 l -0.344 0 l 0 -4.5 c 0 -1.5 1.469 -3 1.469 -3 m 12.03 0 c 0 0 -1.469 1.5 -1.469 3 l 0 4.5 l -0.25 0 c -0.035 0.543 -0.215 1.035 -0.469 1.5 l 0.719 0 l 0 7.5 l -1.031 0 l 0 1.5 l 1.031 0 l 0 3 c 0 1.5 -1.5 3 -1.5 3 l 1.5 0 c 0 0 0.648 -0.641 1.094 -1.5 l 1.5 0 c -0.445 0.859 -1.094 1.5 -1.094 1.5 l 1.5 0 c 0 0 1.5 -1.477 1.5 -3 l 0 -18 c 0 -1.5 1.469 -3 1.469 -3 m -20.559 1.5 l 1.5 0 c -0.23 0.457 -0.441 0.977 -0.441 1.5 l -1.5 0 c 0 -0.523 0.211 -1.043 0.441 -1.5 m 16.531 0 l 1.5 0 c -0.23 0.457 -0.441 0.977 -0.441 1.5 l -1.5 0 c 0 -0.523 0.211 -1.043 0.441 -1.5 m -16.98 3 l 1.5 0 l 0 1.5 l -1.5 0 m 16.531 -1.5 l 1.5 0 l 0 1.5 l -1.5 0 m -16.531 1.5 l 1.5 0 l 0 1.5 l -1.5 0 m 16.531 -1.5 l 1.5 0 l 0 1.5 l -1.5 0 m -16.531 1.5 l 1.5 0 l 0 1.5 l -1.5 0 m 16.531 -1.5 l 1.5 0 l 0 1.5 l -1.5 0 m -16.531 1.5 l 1.5 0 l 0 1.5 l -1.5 0 m 16.531 -1.5 l 1.5 0 l 0 1.5 l -1.5 0 m -16.531 1.5 l 1.5 0 l 0 1.5 l -1.5 0 m 16.531 -1.5 l 1.5 0 l 0 1.5 l -1.5 0 m -16.531 1.5 l 1.5 0 l 0 1.5 l -1.5 0 m 16.531 -1.5 l 1.5 0 l 0 1.5 l -1.5 0 m 0 -1.5" stroke="none" fill-rule="nonzero" fill-opacity="1" fill="#000"/><path d="m 24.57 27.18 c -0.043 -1.453 0.289 -2.859 1.684 -3.855 c 1.469 -1.133 2.887 -2.543 2.738 -4.207 c -0.031 -1.605 -1.934 -2.863 -3.98 -3.043 c -2.301 -0.316 -5.086 0.461 -5.859 2.23 c -0.391 0.863 -0.027 2.406 1.285 2.406 c 0.77 0 1.121 -0.488 1.18 -0.934 c 0.043 -0.34 -0.094 -0.645 -0.18 -0.918 c -0.098 -0.32 0.313 -0.938 0.75 -1.188 c 0.371 -0.211 0.754 -0.281 0.813 -0.297 c 1.324 -0.309 2.645 0.383 3.191 1.223 c 0.551 0.844 -0.055 2.121 -0.926 3.363 c -0.875 1.246 -1.809 2.656 -1.805 4.152 c 0 0.57 -0.055 0.766 -0.016 0.996 c 0.027 0.184 0.648 0.164 1.125 0.074 m -0.605 1.949 c -1.266 -0.066 -2.145 1.348 -1.383 2.246 c 0.68 0.984 2.582 0.75 2.91 -0.375 c 0.34 -0.875 -0.48 -1.891 -1.527 -1.867 m 0 -0.004" stroke="none" fill-rule="nonzero" fill-opacity="1" fill="#000"/></g></g></g></g><g><g clip-path="url(#clipPath-061350746)"><g transform="translate(0,-1)"><!-- color: #eeeeee --><g><path d="m 14.969 12 c 0 0 -1.469 1.5 -1.469 3 l 0 18 c 0 1.516 -1.5 3 -1.5 3 l 1.5 0 c 0 0 0.648 -0.641 1.094 -1.5 l 1.5 0 c -0.445 0.859 -1.094 1.5 -1.094 1.5 l 1.5 0 c 0 0 1.5 -1.531 1.5 -3 l 0 -3 l 1 0 l 0 -1.5 l -1 0 l 0 -7.5 l 1 0 l 0 -0.125 c -0.223 -0.211 -0.391 -0.461 -0.5 -0.719 c -0.086 -0.207 -0.125 -0.434 -0.156 -0.656 l -0.344 0 l 0 -4.5 c 0 -1.5 1.469 -3 1.469 -3 m 12.03 0 c 0 0 -1.469 1.5 -1.469 3 l 0 4.5 l -0.25 0 c -0.035 0.543 -0.215 1.035 -0.469 1.5 l 0.719 0 l 0 7.5 l -1.031 0 l 0 1.5 l 1.031 0 l 0 3 c 0 1.5 -1.5 3 -1.5 3 l 1.5 0 c 0 0 0.648 -0.641 1.094 -1.5 l 1.5 0 c -0.445 0.859 -1.094 1.5 -1.094 1.5 l 1.5 0 c 0 0 1.5 -1.477 1.5 -3 l 0 -18 c 0 -1.5 1.469 -3 1.469 -3 m -20.559 1.5 l 1.5 0 c -0.23 0.457 -0.441 0.977 -0.441 1.5 l -1.5 0 c 0 -0.523 0.211 -1.043 0.441 -1.5 m 16.531 0 l 1.5 0 c -0.23 0.457 -0.441 0.977 -0.441 1.5 l -1.5 0 c 0 -0.523 0.211 -1.043 0.441 -1.5 m -16.98 3 l 1.5 0 l 0 1.5 l -1.5 0 m 16.531 -1.5 l 1.5 0 l 0 1.5 l -1.5 0 m -16.531 1.5 l 1.5 0 l 0 1.5 l -1.5 0 m 16.531 -1.5 l 1.5 0 l 0 1.5 l -1.5 0 m -16.531 1.5 l 1.5 0 l 0 1.5 l -1.5 0 m 16.531 -1.5 l 1.5 0 l 0 1.5 l -1.5 0 m -16.531 1.5 l 1.5 0 l 0 1.5 l -1.5 0 m 16.531 -1.5 l 1.5 0 l 0 1.5 l -1.5 0 m -16.531 1.5 l 1.5 0 l 0 1.5 l -1.5 0 m 16.531 -1.5 l 1.5 0 l 0 1.5 l -1.5 0 m -16.531 1.5 l 1.5 0 l 0 1.5 l -1.5 0 m 16.531 -1.5 l 1.5 0 l 0 1.5 l -1.5 0 m 0 -1.5" fill="#2d2d2d" stroke="none" fill-rule="nonzero" fill-opacity="1"/><path d="m 24.57 27.18 c -0.043 -1.453 0.289 -2.859 1.684 -3.855 c 1.469 -1.133 2.887 -2.543 2.738 -4.207 c -0.031 -1.605 -1.934 -2.863 -3.98 -3.043 c -2.301 -0.316 -5.086 0.461 -5.859 2.23 c -0.391 0.863 -0.027 2.406 1.285 2.406 c 0.77 0 1.121 -0.488 1.18 -0.934 c 0.043 -0.34 -0.094 -0.645 -0.18 -0.918 c -0.098 -0.32 0.313 -0.938 0.75 -1.188 c 0.371 -0.211 0.754 -0.281 0.813 -0.297 c 1.324 -0.309 2.645 0.383 3.191 1.223 c 0.551 0.844 -0.055 2.121 -0.926 3.363 c -0.875 1.246 -1.809 2.656 -1.805 4.152 c 0 0.57 -0.055 0.766 -0.016 0.996 c 0.027 0.184 0.648 0.164 1.125 0.074 m -0.605 1.949 c -1.266 -0.066 -2.145 1.348 -1.383 2.246 c 0.68 0.984 2.582 0.75 2.91 -0.375 c 0.34 -0.875 -0.48 -1.891 -1.527 -1.867 m 0 -0.004" fill="#e4a226" stroke="none" fill-rule="nonzero" fill-opacity="1"/></g></g></g></g><g><g transform="translate(0,-1004.3622)"><path d="m 1 1043.36 0 4 c 0 2.216 1.784 4 4 4 l 38 0 c 2.216 0 4 -1.784 4 -4 l 0 -4 c 0 2.216 -1.784 4 -4 4 l -38 0 c -2.216 0 -4 -1.784 -4 -4 z" opacity="0.1"/></g></g></svg>
